!!!COM: Fanny (Mendelssohn) Hensel
!!!CNT: Deutsch
!!!TXO: Deutsch
!!!OTL: ""
!!!LYR: von Eichendorff, Joseph Freiherr
!!!OPR: Ankla2nge 
!!!OPS: Op. 
!!!ONM: No. 1
!!!ENC: Emily Thomas
!!!YOR: Hensel: Ausgewa2hlte Lieder fu2r Singstimme und Klavier
!!!YOR: Breitkopf & Hartel, 1994 vol. 2
!!!ODT: 1841/
!!NB: Vocal melody and text encoded.
**kern	**silbe
=1-	=1
*clefG2	*
*k[]	*
*M4/4	*
*MM60	*
{4.ee	{Vo2g-
8cc	-lein
4.cc	in
8a	den
=2	=2
4a	sonn'-
4b	-gen
8dd	Ta-
8cc	|
4b}	-gen,}
=3	=3
{4.ff	{Lu2f-
8dd	-te
4dd	blau,
8r	.
8a	die
=4	=4
4.a	mich
8dd	ver-
4cc	-gu2h-
8b}	-ren!}
8r	.
=5	=5
{4g	{Ko2nnt
16bq	ich
8a	|
8g	|
4g	bun-
4cc	-te
=6	=6
4.ee	Flu2-
8dd	-gel
8dd	ru2h-
8cc	|
8b	-ren,
8a}	|}
=7	=7
{4g	{u2-
16bq	-ber
8a	|
8g	|
4g	Berg
4cc	und
=8	=8
4.ee	Wald
8b	sie
8dd	schla-
8cc	|
4b}	-gen,}
=9	=9
{4.ff	{ko2nnt
8dd	ich
4.dd	bun-
8b	-te
=10	=10
4b	Flu2-
4cc	-gel
8ee	ru2h-
8dd	|
4cc}	-ren,}
=11	=11
{4.b-	{u2-
8b-	-ber
8cc	Berg
8dd	und
8ee	Wald
8ff	sie
=12	=12
2.a	schla-
8cc	|
8b	|
=13	=13
4a}	-gen.}
4r	.
2r	.
=14	=14
1r	.
=15	=15
{4.ee	{Vo2g-
8cc#	-lein,
4.cc#	ja,
8a	ich
=16	=16
4a	lass
4a	das
8cc#	Za-
8b	|
4a}	-gen!}
=17	=17
{4.ff#	{Win-
8dd	-de
4.dd	sanft
8cc#	die
=18	=18
4b	Se-
8g#	-gel
8a	|
4cc#	ru2h-
4b}	-ren,}
=19	=19
{4e	{Vo2g-
16g#q	-lein,
8f#	|
8e	|
4e	ja,
4a	ich
=20	=20
4.cc#	lass
8b	das
8b	Za-
8a	|
8g#	-gen,
8f#}	|}
=21	=21
{4e	{Win-
16g#q	-de
8f#	|
8e	|
4e	sanft
8a	die
8cc#	|
=22	=22
4.ee	Se-
8b	-gel
8dd	ru2h-
8ccn	|
8b}	-ren,}
8r	.
=23	=23
{4.ff	{und
8dd	ich
4.dd	las-
8b	-se
=24	=24
4b	mich
4cc	ent-
8ee	-ru2h-
8dd	|
4cc}	-ren,}
=25	=25
{4b-	{ach!
8r	.
8b-	wo-
8cc	-hin
8dd	mag
8ee	ich
8ff	nicht
=26	=26
2.a	fra-
8cc	|
8b	|
=27	=27
4a}	-gen.}
4r	.
{4.ee	{Ach,
8b	wo-
=28	=28
4cc	hin?
4r	.
4.ff	ach,
8cc#	wo-
=29	=29
4dd}	-hin?}
8r	.
{8a	{wo-
8b-	-hin
8cc	mag
8dd	ich
8ee	nicht
=30	=30
2.ff	fra-
4g#	|
=31	=31
4a}	-gen.}
4r	.
2r	.
==	==
*-	*-
